src/lib/packages/icons/src/assets/filled/arrow-up-left-circle.svg

<svg width="24" height="24" viewBox="0 0 24 24" fill="none" xmlns="http://www.w3.org/2000/svg">
<path d="M12 2C6.477 2 2 6.477 2 12C2 17.523 6.477 22 12 22C17.523 22 22 17.523 22 12C22 6.477 17.523 2 12 2ZM15.53 15.53C15.384 15.676 15.192 15.75 15 15.75C14.808 15.75 14.616 15.677 14.47 15.53L9.75 10.8101V13C9.75 13.414 9.414 13.75 9 13.75C8.586 13.75 8.25 13.414 8.25 13V9C8.25 8.902 8.27011 8.80489 8.30811 8.71289C8.38411 8.52989 8.53011 8.38388 8.71411 8.30688C8.80611 8.26888 8.90298 8.24902 9.00098 8.24902H13.001C13.415 8.24902 13.751 8.58502 13.751 8.99902C13.751 9.41302 13.415 9.74902 13.001 9.74902H10.812L15.532 14.469C15.823 14.763 15.823 15.237 15.53 15.53Z" fill="currentColor"/>
</svg>

<svg xmlns="http://www.w3.org/2000/svg" width="24" height="24" fill="none"><path fill="currentColor" d="M12 2C6.477 2 2 6.477 2 12s4.477 10 10 10 10-4.477 10-10S17.523 2 12 2Zm3.53 13.53a.748.748 0 0 1-1.06 0l-4.72-4.72V13a.75.75 0 0 1-1.5 0V9a.751.751 0 0 1 .751-.751h4a.75.75 0 0 1 0 1.5h-2.189l4.72 4.72a.752.752 0 0 1-.002 1.061Z"/></svg>
